img/icon_auto.svg

<svg width="140" height="140" viewBox="0 0 140 140" fill="none" xmlns="http://www.w3.org/2000/svg">
<path d="M69.7331 135.313C105.834 135.313 135.1 106.048 135.1 69.9467C135.1 33.8457 105.834 4.58008 69.7331 4.58008C33.6321 4.58008 4.36642 33.8457 4.36642 69.9467C4.36642 106.048 33.6321 135.313 69.7331 135.313Z" fill="#009AD6" stroke="#009AD6" stroke-width="0.0141667" stroke-miterlimit="1.5" stroke-linejoin="round"/>
<path fill-rule="evenodd" clip-rule="evenodd" d="M65.4726 20.1721C62.7579 19.845 60.0136 19.845 57.2986 20.1721L55.8143 26.9826C54.3174 27.2904 52.8484 27.7216 51.4227 28.2721L46.4917 23.3452C44.031 24.5378 41.7224 26.0214 39.6155 27.7645L42.0488 34.2962C40.9558 35.3645 39.9534 36.5216 39.0515 37.7555L32.2398 36.2766C30.8143 38.61 29.6743 41.1064 28.8441 43.7116L34.4227 47.8912C34.0808 49.3807 33.8629 50.8962 33.7712 52.4219L27.2412 54.8602C27.3036 57.594 27.6943 60.3102 28.4046 62.9509L35.3569 63.4509C35.8746 64.889 36.5107 66.2816 37.2584 67.6145L33.0834 73.1962C34.6138 75.4624 36.411 77.5362 38.4362 79.3735L44.5553 76.0355C45.7681 76.9652 47.0562 77.7931 48.4057 78.5102L47.9112 85.4631C50.4238 86.5419 53.0572 87.315 55.7541 87.7659L59.0969 81.6493C60.6203 81.7757 62.1512 81.7757 63.6743 81.6493L67.0172 87.7659C69.7143 87.315 72.3474 86.5419 74.86 85.4631L74.3655 78.5102C75.7153 77.7931 77.0031 76.9652 78.2162 76.0355L84.3353 79.3735C86.3603 77.5362 88.1574 75.4624 89.6879 73.1962L85.5129 67.6145C86.2607 66.2816 86.8967 64.889 87.4143 63.4509L94.3667 62.9509C95.0769 60.3102 95.4677 57.594 95.53 54.8602L89 52.4219C88.9086 50.8962 88.6905 49.3807 88.3486 47.8912L93.9272 43.7116C93.0969 41.1064 91.9569 38.61 90.5317 36.2766L83.72 37.7555C82.8181 36.5216 81.8155 35.3645 80.7224 34.2962L83.1557 27.7645C81.0488 26.0214 78.7403 24.5378 76.2796 23.3452L71.3488 28.2721C69.9229 27.7216 68.4541 27.2904 66.9569 26.9826L65.4726 20.1721ZM61.3857 33.5983C72.6898 33.5983 81.8672 42.7759 81.8672 54.08C81.8672 65.384 72.6898 74.5616 61.3857 74.5616C50.0815 74.5616 40.9041 65.384 40.9041 54.08C40.9041 42.7759 50.0815 33.5983 61.3857 33.5983Z" fill="white"/>
<path fill-rule="evenodd" clip-rule="evenodd" d="M93.5445 78.6727C91.8872 78.501 90.2153 78.5291 88.5645 78.7565L87.73 82.921C86.821 83.1239 85.9303 83.4017 85.0674 83.7517L82.0126 80.8005C80.5255 81.5522 79.1343 82.4798 77.8684 83.5634L79.4179 87.5182C78.7629 88.1803 78.1638 88.8955 77.6272 89.6565L73.4617 88.8253C72.6172 90.2615 71.9481 91.7941 71.4691 93.3901L74.9107 95.8794C74.7176 96.7905 74.6005 97.716 74.5603 98.6465L70.6067 100.199C70.6729 101.864 70.9386 103.515 71.3984 105.116L75.6395 105.35C75.9695 106.221 76.3715 107.063 76.8407 107.867L74.3541 111.311C75.3098 112.676 76.426 113.921 77.6786 115.02L81.3726 112.923C82.1212 113.477 82.9145 113.968 83.7441 114.391L83.5141 118.633C85.056 119.264 86.6681 119.708 88.316 119.955L90.2903 116.195C91.2195 116.256 92.1522 116.24 93.0791 116.148L95.1784 119.84C96.8169 119.537 98.4134 119.04 99.9331 118.356L99.5607 114.125C100.376 113.675 101.152 113.157 101.881 112.578L105.644 114.549C106.859 113.409 107.932 112.127 108.842 110.731L106.241 107.373C106.683 106.553 107.056 105.698 107.357 104.816L111.587 104.441C111.993 102.824 112.203 101.166 112.213 99.4991L108.21 98.0805C108.138 97.152 107.99 96.2308 107.766 95.3267L111.122 92.7232C110.59 91.1444 109.87 89.6351 108.977 88.2279L104.842 89.1989C104.28 88.4563 103.658 87.7615 102.981 87.122L104.396 83.1172C103.095 82.077 101.673 81.1965 100.161 80.4953L97.2079 83.5477C96.3334 83.2267 95.4341 82.9791 94.5188 82.807L93.5445 78.6727ZM91.1922 86.8948C98.0795 86.7789 103.765 92.2765 103.881 99.1639C103.997 106.051 98.4993 111.737 91.6119 111.853C84.7245 111.968 79.0391 106.471 78.9231 99.5836C78.8072 92.6963 84.3048 87.0108 91.1922 86.8948Z" fill="white"/>
<path d="M85.6457 24.3701C87.73 25.0989 89.7493 25.9668 91.6924 26.9625C107.3 34.9606 117.991 51.2118 117.991 69.9403C117.991 72.2194 117.833 74.4615 117.527 76.6568" stroke="white" stroke-width="0.0212585" stroke-miterlimit="1.5" stroke-linejoin="round"/>
<path fill-rule="evenodd" clip-rule="evenodd" d="M115.203 82.7768L111.187 70.564L124.787 74.2083L115.203 82.7768Z" fill="white"/>
<path d="M85.6457 24.3701C87.73 25.0989 89.7493 25.9668 91.6924 26.9625C107.3 34.9606 117.991 51.2118 117.991 69.9403C117.991 72.2194 117.833 74.4615 117.527 76.6568" stroke="white" stroke-width="0.0212585" stroke-miterlimit="1.5" stroke-linejoin="round"/>
<path fill-rule="evenodd" clip-rule="evenodd" d="M115.203 82.7768L111.187 70.564L124.787 74.2083L115.203 82.7768Z" fill="white"/>
<path d="M85.6457 24.3701C87.73 25.0989 89.7493 25.9668 91.6924 26.9625C107.3 34.9606 117.991 51.2118 117.991 69.9403C117.991 72.2194 117.833 74.4615 117.527 76.6568" stroke="white" stroke-width="0.0212585" stroke-miterlimit="1.5" stroke-linejoin="round"/>
<path fill-rule="evenodd" clip-rule="evenodd" d="M115.203 82.7768L111.187 70.564L124.787 74.2083L115.203 82.7768Z" fill="white"/>
<path fill-rule="evenodd" clip-rule="evenodd" d="M66.2772 116.341C64.155 116.183 62.0586 115.879 60.0012 115.436C43.4719 111.883 29.4602 99.4176 24.7872 81.9774C24.2183 79.8545 23.8062 77.7267 23.5433 75.6055L20.0976 76.0321C20.3795 78.3105 20.8224 80.5959 21.4331 82.8759C26.4548 101.617 41.5095 115.012 59.2714 118.831C61.4831 119.306 63.7369 119.633 66.0186 119.804L66.2772 116.341Z" fill="white"/>
<path fill-rule="evenodd" clip-rule="evenodd" d="M22.4809 69.3335L29.5209 80.0906H15.4406L22.4809 69.3335Z" fill="white"/>
<path d="M85.6457 24.3701C87.73 25.0989 89.7493 25.9668 91.6924 26.9625C107.3 34.9606 117.991 51.2118 117.991 69.9403C117.991 72.2194 117.833 74.4615 117.527 76.6568" stroke="white" stroke-width="0.0212585" stroke-miterlimit="1.5" stroke-linejoin="round"/>
<path fill-rule="evenodd" clip-rule="evenodd" d="M115.203 82.7768L111.187 70.564L124.787 74.2083L115.203 82.7768Z" fill="white"/>
<path d="M85.6457 24.3701C87.73 25.0989 89.7493 25.9668 91.6924 26.9625C107.3 34.9606 117.991 51.2118 117.991 69.9403C117.991 72.2194 117.833 74.4615 117.527 76.6568" stroke="white" stroke-width="0.0212585" stroke-miterlimit="1.5" stroke-linejoin="round"/>
<path fill-rule="evenodd" clip-rule="evenodd" d="M115.203 82.7768L111.187 70.564L124.787 74.2083L115.203 82.7768Z" fill="white"/>
<path d="M85.6457 24.3701C87.73 25.0989 89.7493 25.9668 91.6924 26.9625C107.3 34.9606 117.991 51.2118 117.991 69.9403C117.991 72.2194 117.833 74.4615 117.527 76.6568" stroke="white" stroke-width="0.0212585" stroke-miterlimit="1.5" stroke-linejoin="round"/>
<path fill-rule="evenodd" clip-rule="evenodd" d="M115.203 82.7768L111.187 70.564L124.787 74.2083L115.203 82.7768Z" fill="white"/>
<path d="M85.6457 24.3701C87.73 25.0989 89.7493 25.9668 91.6924 26.9625C107.3 34.9606 117.991 51.2118 117.991 69.9403C117.991 72.2194 117.833 74.4615 117.527 76.6568" stroke="white" stroke-width="0.0212585" stroke-miterlimit="1.5" stroke-linejoin="round"/>
<path fill-rule="evenodd" clip-rule="evenodd" d="M115.203 82.7768L111.187 70.564L124.787 74.2083L115.203 82.7768Z" fill="white"/>
<path d="M85.6457 24.3701C87.73 25.0989 89.7493 25.9668 91.6924 26.9625C107.3 34.9606 117.991 51.2118 117.991 69.9403C117.991 72.2194 117.833 74.4615 117.527 76.6568" stroke="white" stroke-width="0.0212585" stroke-miterlimit="1.5" stroke-linejoin="round"/>
<path fill-rule="evenodd" clip-rule="evenodd" d="M115.203 82.7768L111.187 70.564L124.787 74.2083L115.203 82.7768Z" fill="white"/>
<path fill-rule="evenodd" clip-rule="evenodd" d="M85.0732 26.0242C87.0823 26.7266 89.0285 27.563 90.9013 28.5228C105.948 36.2335 116.256 51.9002 116.256 69.9556C116.256 72.1532 116.103 74.3154 115.808 76.4323L119.247 76.9121C119.564 74.6383 119.728 72.3161 119.728 69.9556C119.728 50.554 108.653 33.7182 92.4849 25.4328C90.4713 24.4009 88.3789 23.5016 86.2192 22.7466L85.0732 26.0242Z" fill="white"/>
<path fill-rule="evenodd" clip-rule="evenodd" d="M115.203 82.7768L111.187 70.564L124.787 74.2083L115.203 82.7768Z" fill="white"/>
</svg>

<svg width="140" height="140" fill="none" xmlns="http://www.w3.org/2000/svg"><path d="M69.733 135.313c36.101 0 65.367-29.265 65.367-65.366S105.834 4.58 69.733 4.58c-36.1 0-65.367 29.266-65.367 65.367 0 36.101 29.266 65.366 65.367 65.366z" fill="#009AD6" stroke="#009AD6" stroke-width=".014" stroke-miterlimit="1.5" stroke-linejoin="round"/><path fill-rule="evenodd" clip-rule="evenodd" d="M65.473 20.172a34.166 34.166 0 00-8.174 0l-1.485 6.81a27.656 27.656 0 00-4.391 1.29l-4.931-4.927a34.156 34.156 0 00-6.877 4.42l2.434 6.531a27.665 27.665 0 00-2.998 3.46l-6.811-1.48a34.153 34.153 0 00-3.396 7.436l5.579 4.18a27.673 27.673 0 00-.652 4.53l-6.53 2.438a34.13 34.13 0 001.164 8.09l6.952.5a27.66 27.66 0 001.901 4.165l-4.175 5.581a34.133 34.133 0 005.353 6.178l6.12-3.338c1.212.93 2.5 1.757 3.85 2.474l-.495 6.953a34.156 34.156 0 007.843 2.303l3.343-6.117a27.54 27.54 0 004.577 0l3.343 6.117a34.153 34.153 0 007.843-2.303l-.495-6.953a27.679 27.679 0 003.851-2.475l6.12 3.339a34.144 34.144 0 005.352-6.178l-4.175-5.581a27.64 27.64 0 001.901-4.164l6.953-.5a34.147 34.147 0 001.163-8.09L89 52.42a27.64 27.64 0 00-.651-4.53l5.578-4.18a34.171 34.171 0 00-3.395-7.434l-6.812 1.478a27.659 27.659 0 00-2.998-3.459l2.434-6.531a34.155 34.155 0 00-6.876-4.42l-4.931 4.927a27.656 27.656 0 00-4.392-1.29l-1.484-6.81zm-4.087 13.426c11.304 0 20.481 9.178 20.481 20.482 0 11.304-9.177 20.482-20.481 20.482-11.305 0-20.482-9.178-20.482-20.482 0-11.304 9.177-20.482 20.482-20.482z" fill="#fff"/><path fill-rule="evenodd" clip-rule="evenodd" d="M93.544 78.673a20.792 20.792 0 00-4.98.084l-.834 4.164c-.909.203-1.8.48-2.663.83l-3.054-2.95a20.807 20.807 0 00-4.145 2.762l1.55 3.955a16.837 16.837 0 00-1.79 2.138l-4.166-.83a20.805 20.805 0 00-1.993 4.564l3.442 2.49a16.82 16.82 0 00-.35 2.767l-3.954 1.552c.066 1.665.332 3.316.791 4.917l4.242.234c.33.871.731 1.713 1.2 2.517l-2.486 3.444a20.82 20.82 0 003.325 3.709l3.694-2.097a16.864 16.864 0 002.371 1.468l-.23 4.242a20.831 20.831 0 004.802 1.322l1.974-3.76c.93.061 1.862.045 2.79-.047l2.098 3.692c1.639-.303 3.235-.8 4.755-1.484l-.372-4.231c.815-.45 1.591-.968 2.32-1.547l3.763 1.971a20.839 20.839 0 003.198-3.818l-2.601-3.358c.442-.82.815-1.675 1.116-2.557l4.23-.375c.406-1.617.616-3.275.626-4.942l-4.003-1.418c-.072-.929-.22-1.85-.444-2.754l3.356-2.604a20.764 20.764 0 00-2.145-4.495l-4.135.97a16.813 16.813 0 00-1.861-2.076l1.415-4.005a20.786 20.786 0 00-4.235-2.622l-2.953 3.053a16.826 16.826 0 00-2.69-.741l-.974-4.134zm-2.352 8.222c6.888-.116 12.573 5.382 12.689 12.269.116 6.887-5.382 12.573-12.27 12.689-6.886.115-12.572-5.382-12.688-12.27-.116-6.887 5.382-12.572 12.27-12.688z" fill="#fff"/><path d="M85.646 24.37a47.997 47.997 0 016.046 2.592c15.608 7.999 26.299 24.25 26.299 42.978 0 2.28-.158 4.522-.464 6.717" stroke="#fff" stroke-width=".021" stroke-miterlimit="1.5" stroke-linejoin="round"/><path fill-rule="evenodd" clip-rule="evenodd" d="M115.203 82.777l-4.016-12.213 13.6 3.644-9.584 8.569z" fill="#fff"/><path d="M85.646 24.37a47.997 47.997 0 016.046 2.592c15.608 7.999 26.299 24.25 26.299 42.978 0 2.28-.158 4.522-.464 6.717" stroke="#fff" stroke-width=".021" stroke-miterlimit="1.5" stroke-linejoin="round"/><path fill-rule="evenodd" clip-rule="evenodd" d="M115.203 82.777l-4.016-12.213 13.6 3.644-9.584 8.569z" fill="#fff"/><path d="M85.646 24.37a47.997 47.997 0 016.046 2.592c15.608 7.999 26.299 24.25 26.299 42.978 0 2.28-.158 4.522-.464 6.717" stroke="#fff" stroke-width=".021" stroke-miterlimit="1.5" stroke-linejoin="round"/><path fill-rule="evenodd" clip-rule="evenodd" d="M115.203 82.777l-4.016-12.213 13.6 3.644-9.584 8.569zm-48.926 33.564a46.058 46.058 0 01-6.276-.905c-16.53-3.553-30.54-16.018-35.214-33.459a46.885 46.885 0 01-1.244-6.371l-3.445.426a50.327 50.327 0 001.335 6.844c5.022 18.741 20.077 32.136 37.838 35.955 2.212.475 4.466.802 6.748.973l.258-3.463z" fill="#fff"/><path fill-rule="evenodd" clip-rule="evenodd" d="M22.48 69.334l7.04 10.757H15.44l7.04-10.757z" fill="#fff"/><path d="M85.646 24.37a47.997 47.997 0 016.046 2.592c15.608 7.999 26.299 24.25 26.299 42.978 0 2.28-.158 4.522-.464 6.717" stroke="#fff" stroke-width=".021" stroke-miterlimit="1.5" stroke-linejoin="round"/><path fill-rule="evenodd" clip-rule="evenodd" d="M115.203 82.777l-4.016-12.213 13.6 3.644-9.584 8.569z" fill="#fff"/><path d="M85.646 24.37a47.997 47.997 0 016.046 2.592c15.608 7.999 26.299 24.25 26.299 42.978 0 2.28-.158 4.522-.464 6.717" stroke="#fff" stroke-width=".021" stroke-miterlimit="1.5" stroke-linejoin="round"/><path fill-rule="evenodd" clip-rule="evenodd" d="M115.203 82.777l-4.016-12.213 13.6 3.644-9.584 8.569z" fill="#fff"/><path d="M85.646 24.37a47.997 47.997 0 016.046 2.592c15.608 7.999 26.299 24.25 26.299 42.978 0 2.28-.158 4.522-.464 6.717" stroke="#fff" stroke-width=".021" stroke-miterlimit="1.5" stroke-linejoin="round"/><path fill-rule="evenodd" clip-rule="evenodd" d="M115.203 82.777l-4.016-12.213 13.6 3.644-9.584 8.569z" fill="#fff"/><path d="M85.646 24.37a47.997 47.997 0 016.046 2.592c15.608 7.999 26.299 24.25 26.299 42.978 0 2.28-.158 4.522-.464 6.717" stroke="#fff" stroke-width=".021" stroke-miterlimit="1.5" stroke-linejoin="round"/><path fill-rule="evenodd" clip-rule="evenodd" d="M115.203 82.777l-4.016-12.213 13.6 3.644-9.584 8.569z" fill="#fff"/><path d="M85.646 24.37a47.997 47.997 0 016.046 2.592c15.608 7.999 26.299 24.25 26.299 42.978 0 2.28-.158 4.522-.464 6.717" stroke="#fff" stroke-width=".021" stroke-miterlimit="1.5" stroke-linejoin="round"/><path fill-rule="evenodd" clip-rule="evenodd" d="M115.203 82.777l-4.016-12.213 13.6 3.644-9.584 8.569z" fill="#fff"/><path fill-rule="evenodd" clip-rule="evenodd" d="M85.073 26.024a46.227 46.227 0 015.828 2.499c15.047 7.71 25.355 23.377 25.355 41.433 0 2.197-.153 4.36-.448 6.476l3.439.48c.317-2.274.481-4.596.481-6.956 0-19.402-11.075-36.238-27.243-44.523a49.7 49.7 0 00-6.266-2.686l-1.146 3.277z" fill="#fff"/><path fill-rule="evenodd" clip-rule="evenodd" d="M115.203 82.777l-4.016-12.213 13.6 3.644-9.584 8.569z" fill="#fff"/></svg>
